X: 12873
T: Fern Height
R: polka
M: 2/4
K: Gmajor
"G"G>A Bd|"Am"cB AG|"D"F/G/F/E/ D>E|FD FA|
"G"G>A Bd|"Am"cB AG|"D"F/G/F/E/ D>E|1 FA"G" GD:|2 FA"G" GA||
|:"G"Bg g>f|"Em"ed cB|"Am"ca "A"a>g|"D"f/e/d ef|
"G"gB "C"ce|"G"dB "C"cA|"D"F/G/F/E/ D>E|1 FA"G" GA:|2 FA"G" GD||

